remix/Communication/chat-forward-line.svg

<svg viewBox="0 0 24 24" fill="currentColor" xmlns="http://www.w3.org/2000/svg"><path d="M6.45455 19L2 22.5V4C2 3.44772 2.44772 3 3 3H21C21.5523 3 22 3.44772 22 4V18C22 18.5523 21.5523 19 21 19H6.45455ZM4 18.3851L5.76282 17H20V5H4V18.3851ZM12 10V7L16 11L12 15V12H8V10H12Z"/></svg>

<svg viewBox="0 0 24 24" xmlns="http://www.w3.org/2000/svg"><path fill="none" d="M0 0h24v24H0Z"/><path d="M6.455 19L2 22.5V4v0c0-.56.44-1 1-1h18v0c.55 0 1 .44 1 1v14 0c0 .55-.45 1-1 1H6.455ZM4 18.38l1.763-1.39H20v-12H4v13.38Zm8-8.39v-3l4 4 -4 4v-3H8v-2h4Z"/></svg>
